svg/Filled/image_filled.svg

<svg viewBox="0 0 24 24" xmlns="http://www.w3.org/2000/svg" width="24" height="24"><path fill-rule="evenodd" d="M18.1 2c1.3.03 2.08.1 2.73.44a4 4 0 0 1 1.74 1.74c.44.86.44 1.98.44 4.22v8.68l-.02.27v.24c-.04 1-.13 1.67-.42 2.23l-.15.27a4 4 0 0 1-1.6 1.47l-.16.08c-.61.26-1.38.33-2.57.35l-1.48.01H5.92a7 7 0 0 1-2.56-.36l-.17-.08a4 4 0 0 1-1.6-1.47l-.15-.27c-.32-.65-.4-1.44-.42-2.74v-.24a1 1 0 0 1 0-.34L1 15.6V8.4c0-2.1 0-3.22.36-4.05l.07-.17A4 4 0 0 1 2.92 2.6l.27-.15c.64-.33 1.43-.41 2.73-.43L7.41 2h10.68m-.6 13a1 1 0 0 0-.33.12l-.1.07-5 5.01h4.54c1.15 0 1.9 0 2.48-.05.55-.04.79-.12.92-.19l.15-.09q.52-.3.8-.87l.06-.12a3 3 0 0 0 .16-1.04l-3.23-2.69-.1-.07a1 1 0 0 0-.34-.08m-8.6-4.87a2.5 2.5 0 0 0-1.52.47l-.18.15-4.4 3.9v.95l.06 2.48c.04.56.12.79.19.92q.33.63.96.96l.12.05c.15.05.38.1.8.14.57.05 1.33.05 2.48.05h2.2q.07-.15.2-.29L14.72 15l-4.16-4.16a2.5 2.5 0 0 0-1.66-.71m7.04-4.47a2.4 2.4 0 1 0 0 4.8 2.4 2.4 0 0 0 0-4.8" clip-rule="evenodd"/></svg>

<svg viewBox="0 0 24 24" xmlns="http://www.w3.org/2000/svg" width="24" height="24"><path fill-rule="evenodd" d="M18.1 2C19.4 2.03 20.18 2.1 20.83 2.44A4 4 0 0 1 22.57 4.18C23.01 5.04 23.01 6.16 23.01 8.4L22.99 17.59C22.95 18.59 22.86 19.26 22.57 19.82L22.42 20.09A4 4 0 0 1 20.82 21.56L20.66 21.64C20.05 21.9 19.28 21.97 18.09 21.99L5.92 22A7 7 0 0 1 3.36 21.64L3.19 21.56A4 4 0 0 1 1.59 20.09L1.44 19.82C1.12 19.17 1.04 18.38 1.02 17.08L1.02 16.84A1 1 0 0 1 1.02 16.5L1 8.4C1 6.3 1 5.18 1.36 4.35L1.43 4.18A4 4 0 0 1 2.92 2.6L3.19 2.45C3.83 2.12 4.62 2.04 5.92 2.02L18.09 2M17.49 15A1 1 0 0 0 17.16 15.12L17.06 15.19L12.06 20.2L16.6 20.2C17.75 20.2 18.5 20.2 19.08 20.15C19.63 20.11 19.87 20.03 20 19.96L20.15 19.87Q20.67 19.57 20.95 19L21.01 18.88A3 3 0 0 0 21.17 17.84L17.84 15.08A1 1 0 0 0 17.5 15M8.9 10.13A2.5 2.5 0 0 0 7.38 10.6L2.8 14.65L2.86 18.08C2.9 18.64 2.98 18.87 3.05 19Q3.38 19.63 4.01 19.96L4.13 20.01C4.28 20.06 4.51 20.11 4.93 20.15C5.5 20.2 6.26 20.2 7.41 20.2L9.61 20.2Q9.68 20.05 9.81 19.91L14.72 15L10.56 10.84A2.5 2.5 0 0 0 8.9 10.13M15.94 5.66a2.4 2.4 0 1 0 0 4.8 2.4 2.4 0 0 0 0-4.8" clip-rule="evenodd"/></svg>
